X: 2934
T: Barrel Rafferty's
R: reel
M: 4/4
K: Dmajor
A|D2 ED FAAB|d2 fe dB B2|AF ~F2 DF A2|
D2 ED FAAB|d2 fe dB B2|AF ~F2 D2 AF|
A|df~f2 dfaf|g2bf affe|dBBA Bcde|
faaf g2bf|affe dB B2|AF~F2 D2 AF|EGFE D3:|

